usr/share/icons/biglinux-icons-material/scalable/mimetypes/text-x-chdr.svg

<svg width="24" height="24" viewBox="0 0 24 24" fill="none" xmlns="http://www.w3.org/2000/svg">
<rect x="1" y="1" width="22" height="22" rx="6.6" fill="url(#paint0_radial_21_1780)"/>
<path d="M6 4V20H9.54021C9.55301 17.9149 9.51236 15.829 9.56474 13.7445C9.65249 12.7654 9.72172 11.5183 10.9143 10.982C11.5708 10.6868 12.4496 10.615 13.1727 10.7987C14.2326 11.0679 14.4105 12.1362 14.4558 12.9059C14.4732 15.2704 14.4585 17.6353 14.4633 20H17.9896C17.9822 17.3427 18.0163 14.6571 17.9896 12C17.953 10.6648 17.254 9.20239 15.6212 8.59307C14.2255 8.07242 12.5733 8.22781 11.157 8.64773C10.4884 8.84598 9.56558 9.81069 9.56558 9.81069C9.55705 7.87384 9.54879 5.93706 9.54026 4.00004L6 4Z" fill="#DA1636"/>
<defs>
<radialGradient id="paint0_radial_21_1780" cx="0" cy="0" r="1" gradientUnits="userSpaceOnUse" gradientTransform="translate(17.5 1) rotate(116.565) scale(24.5967)">
<stop stop-color="#F4F4F4"/>
<stop offset="1" stop-color="#BBBBBB"/>
</radialGradient>
</defs>
</svg>

<svg xmlns="http://www.w3.org/2000/svg" width="24" height="24" fill="none"><rect width="22" height="22" x="1" y="1" fill="url(#a)" rx="6.6"/><path fill="#DA1636" d="M6 4v16h3.54c.013-2.085-.028-4.171.025-6.255.087-.98.157-2.227 1.35-2.763.656-.295 1.535-.367 2.258-.183 1.06.269 1.238 1.337 1.283 2.107.017 2.364.003 4.73.007 7.094h3.527c-.008-2.657.026-5.343 0-8-.037-1.335-.736-2.798-2.369-3.407-1.396-.52-3.048-.365-4.464.055-.669.198-1.591 1.163-1.591 1.163L9.54 4H6Z"/><defs><radialGradient id="a" cx="0" cy="0" r="1" gradientTransform="rotate(116.565 8.441 5.908) scale(24.5967)" gradientUnits="userSpaceOnUse"><stop stop-color="#F4F4F4"/><stop offset="1" stop-color="#BBB"/></radialGradient></defs></svg>
